X: 115
T: Rock the Cradle Joe
M: C|
Z: 2011 John Chambers <jc:trillian.mit.edu>
S: printed MS of unknown origin
R: reel
K: D
fg |\
"D"a2a2 fefg | a2a2 fefg | a2a2 f2e2 | [f3d3]e [f2d2]f2- |
"D"f2e2 d2e2 | fgfe d2ef | "G"gfed "A7"cABc | "D"d6 :|
|: cB |\
"A"Acec Acec | "D"dcde f2f2 | "G"gfgf g2a2 | "D"f3g f4 |
"A"Acec Acec | "D"dcde f2ef | "G"gfed "A7"cABc | "D"d6 :|

%%newpage

